img/icon-eat.svg

<svg width="25" height="30" viewBox="0 0 25 30" fill="none" xmlns="http://www.w3.org/2000/svg">
<path fill-rule="evenodd" clip-rule="evenodd" d="M18.6173 0.0761497C18.991 -0.0786313 19.4211 0.00692445 19.7071 0.292922C20.6156 1.20142 21.8038 3.17065 22.7659 6.21082C23.7373 9.28039 24.5 13.5081 24.5 19C24.5 19.5523 24.0523 20 23.5 20H20V29C20 29.5523 19.5523 30 19 30C18.4477 30 18 29.5523 18 29V1.00003C18 0.595567 18.2436 0.230931 18.6173 0.0761497ZM20 18H22.4912C22.4053 13.1836 21.7051 9.48755 20.8591 6.81424C20.5807 5.93457 20.2885 5.1715 20 4.51895V18Z" fill="white"/>
<path fill-rule="evenodd" clip-rule="evenodd" d="M6 0C6.55228 0 7 0.447715 7 1V29C7 29.5523 6.55228 30 6 30C5.44772 30 5 29.5523 5 29V1C5 0.447715 5.44772 0 6 0Z" fill="white"/>
<path fill-rule="evenodd" clip-rule="evenodd" d="M1.5 0C2.05228 0 2.5 0.447715 2.5 1V6.5C2.5 7.05686 2.69203 7.81518 3.20088 8.41656C3.68001 8.98281 4.51446 9.5 5.99993 9.5C6.55221 9.5 6.99993 9.94771 6.99993 10.5C6.99993 11.0523 6.55221 11.5 5.99993 11.5C3.98547 11.5 2.56995 10.7672 1.6741 9.70844C0.807973 8.68482 0.5 7.44314 0.5 6.5V1C0.5 0.447715 0.947715 0 1.5 0Z" fill="white"/>
<path fill-rule="evenodd" clip-rule="evenodd" d="M10.5 0C9.94771 0 9.5 0.447715 9.5 1V6.5C9.5 7.05686 9.30797 7.81518 8.79912 8.41656C8.31999 8.98281 7.4854 9.5 5.99993 9.5C5.44765 9.5 5.00007 9.94771 5.00007 10.5C5.00007 11.0523 5.44765 11.5 5.99993 11.5C8.01439 11.5 9.43005 10.7672 10.3259 9.70844C11.192 8.68482 11.5 7.44314 11.5 6.5V1C11.5 0.447715 11.0523 0 10.5 0Z" fill="white"/>
</svg>

<svg width="25" height="30" fill="none" xmlns="http://www.w3.org/2000/svg"><path fill-rule="evenodd" clip-rule="evenodd" d="M18.617.076a1 1 0 0 1 1.09.217c.909.908 2.097 2.878 3.059 5.918C23.737 9.28 24.5 13.508 24.5 19a1 1 0 0 1-1 1H20v9a1 1 0 1 1-2 0V1a1 1 0 0 1 .617-.924ZM20 18h2.491c-.086-4.816-.786-8.512-1.632-11.186-.278-.88-.57-1.643-.859-2.295V18ZM6 0a1 1 0 0 1 1 1v28a1 1 0 1 1-2 0V1a1 1 0 0 1 1-1Z" fill="#fff"/><path fill-rule="evenodd" clip-rule="evenodd" d="M1.5 0a1 1 0 0 1 1 1v5.5c0 .557.192 1.315.7 1.917C3.68 8.983 4.515 9.5 6 9.5a1 1 0 1 1 0 2c-2.015 0-3.43-.733-4.326-1.792A5.068 5.068 0 0 1 .5 6.5V1a1 1 0 0 1 1-1Z" fill="#fff"/><path fill-rule="evenodd" clip-rule="evenodd" d="M10.5 0a1 1 0 0 0-1 1v5.5a3.07 3.07 0 0 1-.7 1.917C8.32 8.983 7.484 9.5 6 9.5a1 1 0 0 0 0 2c2.014 0 3.43-.733 4.326-1.792A5.068 5.068 0 0 0 11.5 6.5V1a1 1 0 0 0-1-1Z" fill="#fff"/></svg>
